src/icons/icons_set_01/007-viadeo.svg

<svg height="50" viewBox="0 0 50 50" width="50" xmlns="http://www.w3.org/2000/svg"><g fill="#000100" transform="translate(6.977959 3.995)"><path d="m28.4698538 21.1491763c-.0273437-.0696023-.0646307-.1342331-.0969461-.2013497-.382813.1988639-.7457397.4002136-1.1186095.5717338-.3643015.1685043-.7368086.3186687-1.1161236.4499295-.3877847.1342332-.7830267.2485799-1.1732971.3529835-.0032236.0255854-.0032236.0514743 0 .0770597.0147808.0522236.0322038.103663.0522018.1541196.5286725 1.3627145.8008836 2.8114173.802913 4.2730881.0228793 1.2200216-.1448604 2.4361356-.4971598 3.6044083-.5128277 1.7526711-1.4395627 3.3563405-2.7020633 4.6757876-1.8126878 1.8899919-4.2613935 3.0412821-6.8732337 3.2315384-.2485799.0223722-.4971598.0198864-.765626.0298296.0028015-.0268764.0077897-.0534797.0149148-.0795455.1392047-.1044036.2808952-.2063213.4201-.3132107 2.7790471-2.0814339 5.0303255-4.7865443 6.572452-7.8973828 1.2816951-2.5947852 1.9727262-5.441256 2.0234403-8.3348835.0247223-1.4262486-.0893328-2.8515209-.3405545-4.2556875-.2889268-1.6000515-.72411-3.1702057-1.3000728-4.6907024-.0321833-.0782031-.0686982-.1545525-.1093751-.2286935-.0323154-.2485799-.0447444-.3281254-.0522018-.3753556s0-.1218041 0-.1392047c-.136252-1.3198726-.385751-2.62558387-.7457396-3.90270418-.4773883-1.73223055-1.2104784-3.38356833-2.175074-4.89950947-.6548482-1.05016512-1.4586868-1.99969952-2.3863668-2.81889586-.0894888-.07705976-.1839492-.14914792-.2982959-.24857988 0 .05965917-.0149148.09446036 0 .11683255.0671166.12428994.1416905.24857988.2112929.36789822 1.6510006 2.83915962 3.1012785 5.7903838 4.3402047 8.8320432.3405545.83522842.6512793 1.68288582.9744332 2.52308582l.0969461.1764917c0 .049716.0198864.1367189.0522018.3753556.0174006.4424722.0422586.8998592.049716 1.2926154.0577053 2.3064184-.0253088 4.6142094-.2485799 6.9105207-.1093752 1.0614361-.2485799 2.1179006-.4250716 3.1693935-.2196205 1.319727-.5167735 2.6253747-.889916 3.9101615-.4466081 1.580975-1.0598985 3.1100344-1.8295479 4.5614409-.6808399 1.2926067-1.5560934 2.4730253-2.595174 3.5000047-.9602279.9368553-2.0886419 1.684071-3.3259988 2.2024178-.1293128.0551889-.2723078.0699217-.4101568.0422585-1.6843608-.3225612-3.26611277-1.0465006-4.61115681-2.1104432-1.16166144-.9251601-2.11965859-2.0803421-2.81392426-3.3931153-.75700088-1.3891994-1.22542255-2.9170658-1.37713254-4.4918385-.08994346-.9324473-.07660496-1.871977.03977278-2.8014953.12717849-1.1324801.42381483-2.2394196.87997278-3.2837402.69614112-1.5416206 1.71308269-2.9170341 2.98295858-4.0344515.9693985-.8810545 2.09489336-1.5732128 3.31854147-2.0408408.7949687-.3001549 1.6240973-.5005485 2.4683982-.5965917.7428394-.0842338 1.4921189-.0958893 2.2372189-.0348012.9563825.0728487 1.8969093.2855769 2.7915521.6313929.0770597.0323154.1590911.049716.2734379.0870029.0734178-.6103778.2023855-1.2127821.3852988-1.7997183.1995521-.574498.4353479-1.1357585.7059668-1.6804-.1323059-.0889969-.2810451-.1506899-.4375006-.1814633-1.2144697-.3853665-2.4735386-.6126172-3.7460988-.6761373-1.358613-.0803727-2.7219278.0131881-4.0568236.2784095-1.5932514.3145197-3.11556476.9177163-4.49183851 1.7798319-1.31013668.8294875-2.48405955 1.85667-3.48011834 3.0451036-2.19669273 2.5429422-3.47027817 5.7531833-3.61435148 9.1104526-.05349003.9888292-.01855002 1.9804601.10440355 2.9630722.16989382 1.384533.53564707 2.7379036 1.08629408 4.0195367.89456368 2.0512203 2.21465636 3.8890129 3.87287456 5.3916976 1.22034297 1.124166 2.64466811 2.0042437 4.1960284 2.5926882 1.44791664.5452563 2.97339624.8565615 4.51918224.9222314 1.4349897.0815583 2.8745082-.0220401 4.2830314-.3082391 1.8885392-.3881547 3.6698803-1.1829722 5.2201775-2.3291935 1.2112811-.9103935 2.281014-1.995205 3.1743651-3.2191094 1.7847829-2.3627364 2.820353-5.206225 2.9730154-8.1633634.0727297-1.2287161.0093712-2.4617069-.1889207-3.6764964-.1674765-1.032032-.4458405-2.0429764-.8302569-3.015274z"/><path d="m35.5046645 4.86470828c-.3072211-1.16878385-.766896-2.29206259-1.3671894-3.34091361-.0870029-.14914792-.1814633-.29332426-.2933242-.46981597-.0845172.15163373-.1516337.27095207-.2162645.39275621-.413059.79278057-.950132 1.51447266-1.5909113 2.13778698-.9531062.95173688-2.1449366 1.62922553-3.4502887 1.96129527-.1168326.02734379-.2336651.05965917-.3480118.09197456-.9846742.27608069-1.9327208.66915283-2.8238675 1.17081124-.6008117.34874216-1.1277223.81147779-1.5511385 1.36221775-.7964213.99763623-1.199682 2.25251989-1.1335242 3.52734849.0516381 1.0582786.3495489 2.0899014.8700296 3.0127882.0273438.0447444.0646307.0845172.1168325.1541195 4.225858-1.0340923 7.3853083-3.4478029 9.5777828-7.26350412-.0007805.08313511-.0065913.16614679-.0174005.24857988-.073749.32906804-.1872732.64793738-.3380687.94957515-.3371998.65964624-.7628887 1.27016259-1.2652716 1.81463309-.8657229.9494296-1.8214226 1.8127228-2.853697 2.5777734-1.2396542.9407914-2.5373232 1.8025832-3.8853036 2.5802592-.1153054.0446262-.2159803.1203476-.2908384.2187503.1839491.1640627.3554692.3281254.5394183.482245.6747129.5870735 1.4562488 1.0386088 2.3018497 1.3299023.7994006.271231 1.6540103.3378905 2.4857988.1938923 1.001061-.1791334 1.9333944-.6306786 2.6946059-1.3050443.7426138-.6587296 1.3701843-1.4366817 1.8568918-2.3018498.3008666-.4911126.5507451-1.0116929.7457396-1.5536242.387723-1.1335369.6209993-2.3141331.6935379-3.50994794.0921366-1.50233214-.0623702-3.00961335-.457387-4.46200888z"/></g></svg>

<?xml version="1.0" encoding="UTF-8"?>
<svg width="50px" height="50px" viewBox="0 0 50 50" version="1.1" xmlns="http://www.w3.org/2000/svg" xmlns:xlink="http://www.w3.org/1999/xlink">
    <!-- Generator: Sketch 52.4 (67378) - http://www.bohemiancoding.com/sketch -->
    <title>007-viadeo</title>
    <desc>Created with Sketch.</desc>
    <g id="007-viadeo" stroke="none" stroke-width="1" fill="none" fill-rule="evenodd">
        <g id="Group" transform="translate(6.977959, 3.995000)" fill="#000100" fill-rule="nonzero">
            <g id="177-viadeo">
                <g id="ICONSET-01">
                    <g id="177-viadeo">
                        <path d="M28.4698538,21.1491763 C28.4425101,21.079574 28.4052231,21.0149432 28.3729077,20.9478266 C27.9900947,21.1466905 27.627168,21.3480402 27.2542982,21.5195604 C26.8899967,21.6880647 26.5174896,21.8382291 26.1381746,21.9694899 C25.7503899,22.1037231 25.3551479,22.2180698 24.9648775,22.3224734 C24.9616539,22.3480588 24.9616539,22.3739477 24.9648775,22.3995331 C24.9796583,22.4517567 24.9970813,22.5031961 25.0170793,22.5536527 C25.5457518,23.9163672 25.8179629,25.36507 25.8199923,26.8267408 C25.8428716,28.0467624 25.6751319,29.2628764 25.3228325,30.4311491 C24.8100048,32.1838202 23.8832698,33.7874896 22.6207692,35.1069367 C20.8080814,36.9969286 18.3593757,38.1482188 15.7475355,38.3384751 C15.4989556,38.3608473 15.2503757,38.3583615 14.9819095,38.3683047 C14.984711,38.3414283 14.9896992,38.314825 14.9968243,38.2887592 C15.136029,38.1843556 15.2777195,38.0824379 15.4169243,37.9755485 C18.1959714,35.8941146 20.4472498,33.1890042 21.9893763,30.0781657 C23.2710714,27.4833805 23.9621025,24.6369097 24.0128166,21.7432822 C24.0375389,20.3170336 23.9234838,18.8917613 23.6722621,17.4875947 C23.3833353,15.8875432 22.9481521,14.317389 22.3721893,12.7968923 C22.340006,12.7186892 22.3034911,12.6423398 22.2628142,12.5681988 C22.2304988,12.3196189 22.2180698,12.2400734 22.2106124,12.1928432 C22.203155,12.145613 22.2106124,12.0710391 22.2106124,12.0536385 C22.0743604,10.7337659 21.8248614,9.42805463 21.4648728,8.15093432 C20.9874845,6.41870377 20.2543944,4.76736599 19.2897988,3.25142485 C18.6349506,2.20125973 17.831112,1.25172533 16.903432,0.432528994 C16.8139432,0.355469231 16.7194828,0.283381065 16.6051361,0.183949112 C16.6051361,0.243608284 16.5902213,0.278409467 16.6051361,0.300781657 C16.6722527,0.425071598 16.7468266,0.549361538 16.816429,0.668679882 C18.4674296,3.5078395 19.9177075,6.45906368 21.1566337,9.50072308 C21.4971882,10.3359515 21.807913,11.1836089 22.1310669,12.0238089 L22.228013,12.2003006 C22.228013,12.2500166 22.2478994,12.3370195 22.2802148,12.5756562 C22.2976154,13.0181284 22.3224734,13.4755154 22.3299308,13.8682716 C22.3876361,16.17469 22.304622,18.482481 22.0813509,20.7787923 C21.9719757,21.8402284 21.832771,22.8966929 21.6562793,23.9481858 C21.4366588,25.2679128 21.1395058,26.5735605 20.7663633,27.8583473 C20.3197552,29.4393223 19.7064648,30.9683817 18.9368154,32.4197882 C18.2559755,33.7123949 17.380722,34.8928135 16.3416414,35.9197929 C15.3814135,36.8566482 14.2529995,37.6038639 13.0156426,38.1222107 C12.8863298,38.1773996 12.7433348,38.1921324 12.6054858,38.1644692 C10.921125,37.841908 9.33937303,37.1179686 7.99432899,36.054026 C6.83266755,35.1288659 5.8746704,33.9736839 5.18040473,32.6609107 C4.42340385,31.2717113 3.95498218,29.7438449 3.80327219,28.1690722 C3.71332873,27.2366249 3.72666723,26.2970952 3.84304497,25.3675769 C3.97022346,24.2350968 4.2668598,23.1281573 4.72301775,22.0838367 C5.41915887,20.5422161 6.43610044,19.1668026 7.70597633,18.0493852 C8.67537483,17.1683307 9.80086969,16.4761724 11.0245178,16.0085444 C11.8194865,15.7083895 12.6486151,15.5079959 13.492916,15.4119527 C14.2357554,15.3277189 14.9850349,15.3160634 15.7301349,15.3771515 C16.6865174,15.4500002 17.6270442,15.6627284 18.521687,16.0085444 C18.5987467,16.0408598 18.6807781,16.0582604 18.7951249,16.0955473 C18.8685427,15.4851695 18.9975104,14.8827652 19.1804237,14.295829 C19.3799758,13.721331 19.6157716,13.1600705 19.8863905,12.615429 C19.7540846,12.5264321 19.6053454,12.4647391 19.4488899,12.4339657 C18.2344202,12.0485992 16.9753513,11.8213485 15.7027911,11.7578284 C14.3441781,11.6774557 12.9808633,11.7710165 11.6459675,12.0362379 C10.0527161,12.3507576 8.53040274,12.9539542 7.15412899,13.8160698 C5.84399231,14.6455573 4.67006944,15.6727398 3.67401065,16.8611734 C1.47731792,19.4041156 0.203732477,22.6143567 0.0596591716,25.971626 C0.00616914257,26.9604552 0.041109153,27.9520861 0.164062722,28.9346982 C0.333956544,30.3192312 0.699709793,31.6726018 1.2503568,32.9542349 C2.14492048,35.0054552 3.46501316,36.8432478 5.12323136,38.3459325 C6.34357433,39.4700985 7.76789947,40.3501762 9.31925976,40.9386207 C10.7671764,41.483877 12.292656,41.7951822 13.838442,41.8608521 C15.2734317,41.9424104 16.7129502,41.838812 18.1214734,41.552613 C20.0100126,41.1644583 21.7913537,40.3696408 23.3416509,39.2234195 C24.552932,38.313026 25.6226649,37.2282145 26.516016,36.0043101 C28.3007989,33.6415737 29.336369,30.7980851 29.4890314,27.8409467 C29.5617611,26.6122306 29.4984026,25.3792398 29.3001107,24.1644503 C29.1326342,23.1324183 28.8542702,22.1214739 28.4698538,21.1491763 Z" id="Shape"></path>
                        <path d="M35.5046645,4.86470828 C35.1974434,3.69592443 34.7377685,2.57264569 34.1374751,1.52379467 C34.0504722,1.37464675 33.9560118,1.23047041 33.8441509,1.0539787 C33.7596337,1.20561243 33.6925172,1.32493077 33.6278864,1.44673491 C33.2148274,2.23951548 32.6777544,2.96120757 32.0369751,3.58452189 C31.0838689,4.53625877 29.8920385,5.21374742 28.5866864,5.54581716 C28.4698538,5.57316095 28.3530213,5.60547633 28.2386746,5.63779172 C27.2540004,5.91387241 26.3059538,6.30694455 25.4148071,6.80860296 C24.8139954,7.15734512 24.2870848,7.62008075 23.8636686,8.17082071 C23.0672473,9.16845694 22.6639866,10.4233406 22.7301444,11.6981692 C22.7817825,12.7564478 23.0796933,13.7880706 23.600174,14.7109574 C23.6275178,14.7557018 23.6648047,14.7954746 23.7170065,14.8650769 C27.9428645,13.8309846 31.1023148,11.417274 33.2947893,7.60157278 C33.2940088,7.68470789 33.288198,7.76771957 33.2773888,7.85015266 C33.2036398,8.1792207 33.0901156,8.49809004 32.9393201,8.79972781 C32.6021203,9.45937405 32.1764314,10.0698904 31.6740485,10.6143609 C30.8083256,11.5637905 29.8526259,12.4270837 28.8203515,13.1921343 C27.5806973,14.1329257 26.2830283,14.9947175 24.9350479,15.7723935 C24.8197425,15.8170197 24.7190676,15.8927411 24.6442095,15.9911438 C24.8281586,16.1552065 24.9996787,16.3192692 25.1836278,16.4733888 C25.8583407,17.0604623 26.6398766,17.5119976 27.4854775,17.8032911 C28.2848781,18.0745221 29.1394878,18.1411816 29.9712763,17.9971834 C30.9723373,17.81805 31.9046707,17.3665048 32.6658822,16.6921391 C33.408496,16.0334095 34.0360665,15.2554574 34.522774,14.3902893 C34.8236406,13.8991767 35.0735191,13.3785964 35.2685136,12.8366651 C35.6562366,11.7031282 35.8895129,10.522532 35.9620515,9.32671716 C36.0541881,7.82438502 35.8996813,6.31710381 35.5046645,4.86470828 Z" id="Shape"></path>
                    </g>
                </g>
            </g>
        </g>
    </g>
</svg>
